udata_front/theme/gouvfr/templates/svg/triangle.svg

<svg fill="none" height="10" viewBox="0 0 11 10" width="11" xmlns="http://www.w3.org/2000/svg"><path d="m10.2966 8.84766-8.63278-8.632816c-.13672-.136719-.3125-.214844-.46875-.214844-.351564 0-.683595.292969-.683595.703125v8.613285c0 .39062.292968.68359.683595.68359h8.61328c.62495 0 .91795-.72266.48825-1.15234zm-8.84763.21484v-7.75391l7.75391 7.75391zm1.5625-1.6625c0 .05523.04478.1.1.1h2.08046c.08909 0 .13371-.10771.07071-.17071l-2.08045-2.08045c-.063-.063-.17072-.01838-.17072.07071z" fill="#3558a2"/></svg>

<svg aria-hidden="true" width="11" height="10" viewBox="0 0 11 10" fill="none" xmlns="http://www.w3.org/2000/svg">
<path d="M10.2966 8.84766L1.66382 0.214844C1.5271 0.078125 1.35132 0 1.19507 0C0.843506 0 0.511475 0.292969 0.511475 0.703125V9.31641C0.511475 9.70703 0.804443 10 1.19507 10H9.80835C10.4333 10 10.7263 9.27734 10.2966 8.84766ZM1.44897 9.0625V1.30859L9.20288 9.0625H1.44897ZM3.01147 7.4C3.01147 7.45523 3.05625 7.5 3.11147 7.5H5.19193C5.28102 7.5 5.32564 7.39229 5.26264 7.32929L3.18219 5.24884C3.11919 5.18584 3.01147 5.23046 3.01147 5.31955V7.4Z" fill="#3558a2"/>
</svg>
